src/Assets/Icons/General/PrimaryNavbarComponent/CustomerDataManagement_selected.svg

<svg width="50" height="41" viewBox="0 0 50 41" fill="none" xmlns="http://www.w3.org/2000/svg">
<path d="M39.347 14.177C36.8152 5.9649 29.1604 0 20.1212 0C9.00665 0 0 9.00665 0 20.1182C0 31.2298 9.00961 40.2423 20.1212 40.2423H36.24C43.539 40.2423 49.4565 34.3249 49.4565 27.0259C49.4565 20.8001 45.1489 15.5734 39.347 14.18V14.177ZM23.0414 7.44723C25.3746 7.44723 27.266 9.33869 27.266 11.6719C27.266 14.0051 25.3746 15.8965 23.0414 15.8965C20.7082 15.8965 18.8167 14.0051 18.8167 11.6719C18.8167 9.33869 20.7082 7.44723 23.0414 7.44723ZM16.0033 32.7892C14.8381 32.7892 13.8924 31.8434 13.8924 30.6783C13.8924 29.5132 14.8381 28.5675 16.0033 28.5675C17.1684 28.5675 18.1141 29.5132 18.1141 30.6783C18.1141 31.8434 17.1684 32.7892 16.0033 32.7892ZM23.0414 32.7892C21.8733 32.7892 20.9305 31.8434 20.9305 30.6783C20.9305 29.5132 21.8763 28.5675 23.0414 28.5675C24.2065 28.5675 25.1522 29.5132 25.1522 30.6783C25.1522 31.8434 24.2065 32.7892 23.0414 32.7892ZM30.0824 32.7892C28.9173 32.7892 27.9716 31.8434 27.9716 30.6783C27.9716 29.5132 28.9173 28.5675 30.0824 28.5675C31.2476 28.5675 32.1933 29.5132 32.1933 30.6783C32.1933 31.8434 31.2476 32.7892 30.0824 32.7892ZM29.3769 25.7511H16.7059C15.1494 25.7511 13.8895 24.4911 13.8895 22.9346C13.8895 20.6014 15.7809 18.71 18.1141 18.71H27.9686C30.3018 18.71 32.1933 20.6014 32.1933 22.9346C32.1933 24.4881 30.9333 25.7511 29.3769 25.7511Z" fill="#0000FF"/>
</svg>

<svg xmlns="http://www.w3.org/2000/svg" width="50" height="41" fill="none"><path fill="#00F" d="M39.347 14.177C36.815 5.965 29.16 0 20.121 0 9.007 0 0 9.007 0 20.118 0 31.23 9.01 40.242 20.121 40.242H36.24c7.299 0 13.216-5.917 13.216-13.216 0-6.226-4.307-11.453-10.109-12.846zm-16.306-6.73a4.225 4.225 0 1 1 0 8.45 4.225 4.225 0 0 1 0-8.45M16.003 32.79a2.112 2.112 0 0 1 0-4.222 2.112 2.112 0 0 1 0 4.222m7.038 0a2.11 2.11 0 1 1 0-4.222 2.112 2.112 0 0 1 0 4.222m7.041 0a2.112 2.112 0 1 1 .002-4.223 2.112 2.112 0 0 1-.002 4.223m-.705-7.038H16.706a2.815 2.815 0 0 1-2.816-2.816 4.225 4.225 0 0 1 4.224-4.225h9.855a4.225 4.225 0 0 1 4.224 4.225 2.817 2.817 0 0 1-2.816 2.816"/></svg>
